X:1
T:Title
%%score { 1 | 2 }
L:1/8
M:3/4
K:Eb
V:1 treble nm="Grand Piano"
V:2 bass 
V:1
 z2 z2[Q:1/4=92] [B,GB]>[B,GB] | [B,GB]3 [B,EG] [B,FA][B,GB] | [Ac] [GB]3 [GB]>[GB] | [GB]3 G FE | %4
[M:2/4] [DF]4 |[M:1/4] [GB]>[GB] |[M:3/4] [GB]3 [EG] [EA][EB] | [Ec] [B,EB]3 B>c | d3 [FB] c/F/=A | %9
[M:2/4] [DB]4 |[M:1/4] [FA]>[FA] |[M:3/4] [FA]3 [DF] [EG][FA] | [_Gc] [=GB]3 [FB]>[Fc] | %13
 [Fd]3 [Ge] [Fd]>[Ec] |[M:2/4] [DB]4 |[M:1/4] [GB]>[EG] |[M:3/4] [Ge]3 [Gd] [Gf][Ge] | d c3 d>c | %18
 [GB]3 [Ge] [DG]>[DF] |[M:2/4] E4 |] %20
V:2
 z2 z2 E,>E, | E,3 E, E,E, | [E,E] [E,E]3 [E,E]>[E,E] | [E,E]3 [E,B,E] [E,A,E][E,G,] | %4
[M:2/4] [B,,B,]4 |[M:1/4] [E,B,]>[E,B,] |[M:3/4] [E,B,]3 [_D,B,] [C,A,][B,,G,] | %7
 [A,,A,] G,,3 [G,B,E]>[_G,B,E] | [F,B,F]3 [D,B,] [F,=A,E][F,CE] |[M:2/4] [B,,B,]4 | %10
[M:1/4] [B,,B,]>[B,,B,] |[M:3/4] [B,,B,]3 [B,,B,] [B,,B,][B,,B,] | [E,=A,] [E,B,]3 [D,B,]>[F,A,] | %13
 [B,,B,]3 [B,,B,] [F,=A,]>[F,A,] |[M:2/4] [B,,B,]4 |[M:1/4] [E,B,]>[E,B,] | %16
[M:3/4] [E,E]3 [E,E] [E,E][E,E] | [A,CA] [A,EA]3 [A,CA]>[A,EA] | [E,E]3 [E,B,] [B,,B,]>[B,,A,] | %19
[M:2/4] [E,G,]4 |] %20

